X: 117
T:Push About the Jorum Strathspey
M:4/4
L:1/8
Z:abc by Bruce Osborne - bosborne@kos.net
K:G
g|d3/2G/B3/2G/ F/A3/2A3/2c/|B3/2G/B3/2d/ e/f/gf3/2e/|d3/4GB3/2G/F/A3/2A3/2B3/4|E3/2G/F3/2A/ G2 G3/2g/|!
d3/2G/B3/2G/ F/A3/2A3/2c/|B3/2G/B3/2d/ e/f/gf3/2e/|d3/2G/B3/2G/ F/A3/2A3/2B/|E3/2G/F3/2A/ G3:|!
|:d|[B2 g2] f3/2g/ a3/2f/e3/2d/|g/g3/2f3/2g/ a2 a3/2d/|d3/2g/f3/2g/ a3/2f/e3/2d/|e/f/gf/g/a g2 [B2 g2]|!
g/g3/2f3/2g/ a3/2f/e3/2d/|g/g3/2f3/2g/ a2 a3/2d/|d3/2g/f3/2g/ a3/2f/e3/2d/|e/g3/2f/a3/2 g2 [B2 g2]:|!
